icons/repo-clone-16.svg

<svg xmlns="http://www.w3.org/2000/svg" width="16" height="16" viewBox="0 0 16 16"><path d="M2 1v9h10v3c0 .55-.45 1-1 1H6v2l-1.5-1.5L3 16v-2H1c-.55 0-1-.45-1-1V1c0-.55.45-1 1-1h7v1zm13-1c.55 0 1 .45 1 1v6c0 .55-.45 1-1 1h-3v1h-1V8h-1c-.55 0-1-.45-1-1V0zm-4 11H1v2h2v-1h3v1h5zm4-6V1h-4v4zm0 2V6h-3v1zM4 3H3V2h1zm0 2H3V4h1zm0 2H3V6h1zm7 0V6h-1v1zM3 8h1v1H3z"/></svg>

<svg xmlns="http://www.w3.org/2000/svg" width="16" height="16" viewBox="0 0 16 16">
  <defs/>
  <path d="M2,1 L2,10 L12,10 L12,13 C12,13.55 11.55,14 11,14 L6,14 L6,16 L4.5,14.5 L3,16 L3,14 L1,14 C0.45,14 0,13.55 0,13 L0,1 C0,0.45 0.45,0 1,0 L8,0 L8,1 Z M15,0 C15.55,0 16,0.45 16,1 L16,7 C16,7.55 15.55,8 15,8 L12,8 L12,9 L11,9 L11,8 L10,8 C9.45,8 9,7.55 9,7 L9,0 Z M11,11 L1,11 L1,13 L3,13 L3,12 L6,12 L6,13 L11,13 Z M15,5 L15,1 L11,1 L11,5 Z M15,7 L15,6 L12,6 L12,7 Z M4,3 L3,3 L3,2 L4,2 Z M4,5 L3,5 L3,4 L4,4 Z M4,7 L3,7 L3,6 L4,6 Z M11,7 L11,6 L10,6 L10,7 Z M3,8 L4,8 L4,9 L3,9 Z"/>
</svg>
